!!!OTL: 185a. Die treue Schwester.
!!!ODT: 1844
!!!ARE: Europa, Mitteleuropa, Deutschland, Schlesien, Neisse, Waltorf
!!!SCT: E0185A
!!!TXL: @@DE
!!!YEM: Copyright 1995, estate of Helmut Schaffrath.
**kern	**text
*ICvox	*
*M2/4	*
*k[b-e-]	*
*B-:	*
!LO:TX:a:t=Ernst.	!
!LO:TX:a:t=Jeder Theil erst Solo, dann Tutti.	!
!LO:TX:a:t=Aus Waltdorf bei Neiße 1844.	!
{8f	Es
=1	=1
4b-	rit-
8b-L	-ten
8ccJ	drei
=2	=2
4dd	Her-
8ccL	-ren
8b-J	ʒum
=3	=3
8dd	küh-
8cc	-len
8b-;}	Wein,
{8f	Es
=4	=4
4b-	rit-
8b-L	-ten
8ccJ	drei
=5	=5
4dd	Her-
8ccL	-ren
8b-J	ʒum
=6	=6
8dd	küh-
8cc	-len
8b-;}	Wein,
{8f	ſie
=7	=7
8b-	woll-
8b-	-ten
8a	al-
8b-/	-le
=8	=8
4cc	ʒwei-
8b-L	-e
8aJ	nicht
=9	=9
8b-/	lan-
8g	-ge
8f;}	ſein.
{8f	ſie
=10	=10
8b-	woll-
8b-	-ten
8a	al-
8b-/	-le
=11	=11
4cc	ʒwei-
8b-L	-e
8aJ	nicht
=12	=12
8b-/	lan-
8g	-ge
8f;}	ſein.
==	==
!!!AGN: erzaehlendes Volks - Lied, Sage, Familien - Geschichte
!!!ONB: ESAC (Essen Associative Code) Database: ERK1
!!!AMT: simple duple
!!!AIN: vox
!!!EED: Helmut Schaffrath
!!!EEV: 1.0
!!!GTL: Denkwuerdige Familiengeschichten
!!!URL-scan: https://rosdok.uni-rostock.de/mcrviewer/recordIdentifier/rosdok_ppn745146120/iview2/phys_0630.iview2?x=-128.7727644188933&y=231.46840429725125&scale=0.5870222003877484&rotation=0&layout=singlePageLayout
!!!ENC: Anna Maria Matuszewska
!!!EEV: 2024/05/12
*-	*-
